assets/icons/utility/package.svg

<?xml version="1.0"?><svg xmlns="http://www.w3.org/2000/svg" width="52" height="52" viewBox="0 0 52 52"><path fill="#fff" d="m44.4 24h-7.9l-3.3 4h10.8v6h-36v-6h10.7l-3.3-4h-7.8c-2 0-3.6 1.6-3.6 3.6v19.4c0 1.7 1.3 3 3 3h38c1.7 0 3-1.3 3-3v-19.4c0-2-1.6-3.6-3.6-3.6z m-21.4-20.5v12.5h-6.9c-1 0-1.5 0.9-0.9 1.4l10 12.3c0.4 0.3 1 0.3 1.4 0l10-12.3c0.6-0.6 0.1-1.4-0.9-1.4h-6.7v-12.5c0-0.8-0.7-1.5-1.5-1.5h-3c-0.8 0-1.5 0.7-1.5 1.5z"></path></svg>

<svg xmlns="http://www.w3.org/2000/svg" x="0px" y="0px"
	 width="52px" height="52px" viewBox="0 0 52 52" enable-background="new 0 0 52 52" xml:space="preserve">
<path fill="#FFFFFF" d="M44.4,24h-7.9l-3.3,4H44v6H8v-6h10.7l-3.3-4H7.6c-2,0-3.6,1.6-3.6,3.6V37v4v6c0,1.7,1.3,3,3,3h38
	c1.7,0,3-1.3,3-3v-6v-4v-9.4C48,25.6,46.4,24,44.4,24z"/>
<g>
	<path fill="#FFFFFF" d="M23,3.5V16h-6.9c-1,0-1.5,0.9-0.9,1.4l10,12.3c0.4,0.3,1,0.3,1.4,0l10-12.3c0.6-0.6,0.1-1.4-0.9-1.4H29V3.5
		C29,2.7,28.3,2,27.5,2h-3C23.7,2,23,2.7,23,3.5z"/>
</g>
</svg>
